icons/modern/flying-disc.svg

<svg width="32" height="32" viewBox="0 0 32 32" fill="none" xmlns="http://www.w3.org/2000/svg">
<g filter="url(#filter0_i_18_2404)">
<path d="M23.029 15.54C13.619 5.59001 21.519 3.69 28.319 3.56C28.739 3.55 29.089 3.21 29.089 2.78C29.089 2.35 28.739 2 28.309 2H15.089C8.46899 2 3.099 7.36999 3.099 13.99V19.03L24.579 17.43L23.029 15.54Z" fill="url(#paint0_linear_18_2404)"/>
<path d="M23.029 15.54C13.619 5.59001 21.519 3.69 28.319 3.56C28.739 3.55 29.089 3.21 29.089 2.78C29.089 2.35 28.739 2 28.309 2H15.089C8.46899 2 3.099 7.36999 3.099 13.99V19.03L24.579 17.43L23.029 15.54Z" fill="url(#paint1_radial_18_2404)"/>
<path d="M23.029 15.54C13.619 5.59001 21.519 3.69 28.319 3.56C28.739 3.55 29.089 3.21 29.089 2.78C29.089 2.35 28.739 2 28.309 2H15.089C8.46899 2 3.099 7.36999 3.099 13.99V19.03L24.579 17.43L23.029 15.54Z" fill="url(#paint2_radial_18_2404)"/>
</g>
<g filter="url(#filter1_i_18_2404)">
<path d="M26.2489 25.41C28.0189 21.02 24.359 15.41 18.079 12.89C11.799 10.36 5.27896 11.87 3.50896 16.26C1.73896 20.65 5.39897 26.26 11.679 28.78C17.959 31.31 24.4789 29.8 26.2489 25.41Z" fill="url(#paint3_radial_18_2404)"/>
</g>
<path d="M25.759 23.12C27.159 19.63 23.759 14.98 18.159 12.72C12.559 10.46 6.87902 11.46 5.47902 14.95C4.07902 18.44 7.47902 23.09 13.079 25.35C18.679 27.61 24.359 26.61 25.759 23.12Z" fill="url(#paint4_radial_18_2404)"/>
<g filter="url(#filter2_iiif_18_2404)">
<path fill-rule="evenodd" clip-rule="evenodd" d="M9.11113 20.0474C10.1085 21.4098 11.756 22.6795 13.8246 23.5125C15.8932 24.3454 17.9609 24.5716 19.6241 24.2805C21.2931 23.9883 22.4997 23.19 22.9694 22.0235C23.4391 20.857 23.1223 19.4453 22.1215 18.0781C21.1241 16.7156 19.4766 15.4459 17.408 14.613C15.3394 13.7801 13.2717 13.5538 11.6085 13.845C9.93949 14.1372 8.73284 14.9355 8.26316 16.102C7.79347 17.2685 8.11025 18.6802 9.11113 20.0474ZM8.55769 20.4525C7.47694 18.9762 7.03633 17.3125 7.62692 15.8458C8.2175 14.3791 9.68803 13.4849 11.4903 13.1694C13.2984 12.8529 15.4961 13.1037 17.6642 13.9767C19.8323 14.8497 21.5906 16.1917 22.6749 17.6729C23.7557 19.1493 24.1963 20.8129 23.6057 22.2797C23.0151 23.7464 21.5446 24.6406 19.7423 24.9561C17.9342 25.2726 15.7365 25.0217 13.5684 24.1487C11.4003 23.2757 9.64198 21.9337 8.55769 20.4525Z" fill="#21C2FF"/>
</g>
<defs>
<filter id="filter0_i_18_2404" x="3.099" y="1.85" width="26.14" height="17.18" filterUnits="userSpaceOnUse" color-interpolation-filters="sRGB">
<feFlood flood-opacity="0" result="BackgroundImageFix"/>
<feBlend mode="normal" in="SourceGraphic" in2="BackgroundImageFix" result="shape"/>
<feColorMatrix in="SourceAlpha" type="matrix" values="0 0 0 0 0 0 0 0 0 0 0 0 0 0 0 0 0 0 127 0" result="hardAlpha"/>
<feOffset dx="0.15" dy="-0.15"/>
<feGaussianBlur stdDeviation="0.125"/>
<feComposite in2="hardAlpha" operator="arithmetic" k2="-1" k3="1"/>
<feColorMatrix type="matrix" values="0 0 0 0 0.443137 0 0 0 0 0.796078 0 0 0 0 0.894118 0 0 0 1 0"/>
<feBlend mode="normal" in2="shape" result="effect1_innerShadow_18_2404"/>
</filter>
<filter id="filter1_i_18_2404" x="2.81323" y="11.3635" width="23.8815" height="18.6431" filterUnits="userSpaceOnUse" color-interpolation-filters="sRGB">
<feFlood flood-opacity="0" result="BackgroundImageFix"/>
<feBlend mode="normal" in="SourceGraphic" in2="BackgroundImageFix" result="shape"/>
<feColorMatrix in="SourceAlpha" type="matrix" values="0 0 0 0 0 0 0 0 0 0 0 0 0 0 0 0 0 0 127 0" result="hardAlpha"/>
<feOffset dx="-0.25" dy="-0.3"/>
<feGaussianBlur stdDeviation="0.5"/>
<feComposite in2="hardAlpha" operator="arithmetic" k2="-1" k3="1"/>
<feColorMatrix type="matrix" values="0 0 0 0 0.239216 0 0 0 0 0.490196 0 0 0 0 0.980392 0 0 0 1 0"/>
<feBlend mode="normal" in2="shape" result="effect1_innerShadow_18_2404"/>
</filter>
<filter id="filter2_iiif_18_2404" x="7.21322" y="12.8881" width="16.9062" height="12.4492" filterUnits="userSpaceOnUse" color-interpolation-filters="sRGB">
<feFlood flood-opacity="0" result="BackgroundImageFix"/>
<feBlend mode="normal" in="SourceGraphic" in2="BackgroundImageFix" result="shape"/>
<feColorMatrix in="SourceAlpha" type="matrix" values="0 0 0 0 0 0 0 0 0 0 0 0 0 0 0 0 0 0 127 0" result="hardAlpha"/>
<feOffset dx="0.25" dy="0.25"/>
<feGaussianBlur stdDeviation="0.15"/>
<feComposite in2="hardAlpha" operator="arithmetic" k2="-1" k3="1"/>
<feColorMatrix type="matrix" values="0 0 0 0 0.4 0 0 0 0 0.866667 0 0 0 0 1 0 0 0 1 0"/>
<feBlend mode="normal" in2="shape" result="effect1_innerShadow_18_2404"/>
<feColorMatrix in="SourceAlpha" type="matrix" values="0 0 0 0 0 0 0 0 0 0 0 0 0 0 0 0 0 0 127 0" result="hardAlpha"/>
<feOffset dx="0.1" dy="0.1"/>
<feGaussianBlur stdDeviation="0.05"/>
<feComposite in2="hardAlpha" operator="arithmetic" k2="-1" k3="1"/>
<feColorMatrix type="matrix" values="0 0 0 0 0.180392 0 0 0 0 0.815686 0 0 0 0 1 0 0 0 1 0"/>
<feBlend mode="normal" in2="effect1_innerShadow_18_2404" result="effect2_innerShadow_18_2404"/>
<feColorMatrix in="SourceAlpha" type="matrix" values="0 0 0 0 0 0 0 0 0 0 0 0 0 0 0 0 0 0 127 0" result="hardAlpha"/>
<feOffset dx="-0.15" dy="-0.15"/>
<feGaussianBlur stdDeviation="0.125"/>
<feComposite in2="hardAlpha" operator="arithmetic" k2="-1" k3="1"/>
<feColorMatrix type="matrix" values="0 0 0 0 0.14902 0 0 0 0 0.745098 0 0 0 0 1 0 0 0 1 0"/>
<feBlend mode="normal" in2="effect2_innerShadow_18_2404" result="effect3_innerShadow_18_2404"/>
<feGaussianBlur stdDeviation="0.05" result="effect4_foregroundBlur_18_2404"/>
</filter>
<linearGradient id="paint0_linear_18_2404" x1="22.5633" y1="1.1875" x2="16.094" y2="15.1875" gradientUnits="userSpaceOnUse">
<stop stop-color="#9FF6FB"/>
<stop offset="1" stop-color="#8DEBFC"/>
</linearGradient>
<radialGradient id="paint1_radial_18_2404" cx="0" cy="0" r="1" gradientUnits="userSpaceOnUse" gradientTransform="translate(4.18826 19.03) rotate(-67.399) scale(5.85461 8.66592)">
<stop stop-color="#6DC8EA"/>
<stop offset="1" stop-color="#6DC8EA" stop-opacity="0"/>
</radialGradient>
<radialGradient id="paint2_radial_18_2404" cx="0" cy="0" r="1" gradientUnits="userSpaceOnUse" gradientTransform="translate(10.5064 19.03) rotate(-42.8298) scale(25.0506 38.2305)">
<stop offset="0.972263" stop-color="#BEFDFD" stop-opacity="0"/>
<stop offset="0.995397" stop-color="#BEFDFD"/>
</radialGradient>
<radialGradient id="paint3_radial_18_2404" cx="0" cy="0" r="1" gradientUnits="userSpaceOnUse" gradientTransform="translate(22.6257 25.5625) rotate(-133.519) scale(20.513 26.4269)">
<stop offset="0.100167" stop-color="#46A7FF"/>
<stop offset="1" stop-color="#3C7AB0"/>
</radialGradient>
<radialGradient id="paint4_radial_18_2404" cx="0" cy="0" r="1" gradientUnits="userSpaceOnUse" gradientTransform="translate(9.06326 15.6875) rotate(25.448) scale(20.0725 27.8904)">
<stop stop-color="#43CEFF"/>
<stop offset="1" stop-color="#43D1FF"/>
</radialGradient>
</defs>
</svg>

<svg width="32" height="32" fill="none" xmlns="http://www.w3.org/2000/svg"><g filter="url(#a)"><path d="M23.029 15.54c-9.41-9.95-1.51-11.85 5.29-11.98.42-.01.77-.35.77-.78 0-.43-.35-.78-.78-.78h-13.22c-6.62 0-11.99 5.37-11.99 11.99v5.04l21.48-1.6-1.55-1.89Z" fill="url(#b)"/><path d="M23.029 15.54c-9.41-9.95-1.51-11.85 5.29-11.98.42-.01.77-.35.77-.78 0-.43-.35-.78-.78-.78h-13.22c-6.62 0-11.99 5.37-11.99 11.99v5.04l21.48-1.6-1.55-1.89Z" fill="url(#c)"/><path d="M23.029 15.54c-9.41-9.95-1.51-11.85 5.29-11.98.42-.01.77-.35.77-.78 0-.43-.35-.78-.78-.78h-13.22c-6.62 0-11.99 5.37-11.99 11.99v5.04l21.48-1.6-1.55-1.89Z" fill="url(#d)"/></g><g filter="url(#e)"><path d="M26.249 25.41c1.77-4.39-1.89-10-8.17-12.52-6.28-2.53-12.8-1.02-14.57 3.37-1.77 4.39 1.89 10 8.17 12.52 6.28 2.53 12.8 1.02 14.57-3.37Z" fill="url(#f)"/></g><path d="M25.759 23.12c1.4-3.49-2-8.14-7.6-10.4s-11.28-1.26-12.68 2.23c-1.4 3.49 2 8.14 7.6 10.4s11.28 1.26 12.68-2.23Z" fill="url(#g)"/><g filter="url(#h)"><path fill-rule="evenodd" clip-rule="evenodd" d="M9.111 20.047c.997 1.363 2.645 2.633 4.714 3.465 2.068.833 4.136 1.06 5.8.768 1.668-.292 2.875-1.09 3.344-2.257.47-1.166.153-2.578-.848-3.945-.997-1.362-2.644-2.632-4.713-3.465-2.069-.833-4.136-1.06-5.8-.768-1.669.292-2.875 1.09-3.345 2.257-.47 1.166-.153 2.578.848 3.945Zm-.553.405c-1.081-1.476-1.522-3.14-.931-4.606.59-1.467 2.061-2.361 3.863-2.677 1.808-.316 4.006-.065 6.174.808s3.927 2.215 5.01 3.696c1.082 1.476 1.522 3.14.932 4.607-.59 1.466-2.061 2.36-3.864 2.676-1.808.317-4.006.066-6.174-.807s-3.926-2.215-5.01-3.697Z" fill="#21C2FF"/></g><defs><radialGradient id="c" cx="0" cy="0" r="1" gradientUnits="userSpaceOnUse" gradientTransform="matrix(2.25 -5.405 8.0004 3.33041 4.188 19.03)"><stop stop-color="#6DC8EA"/><stop offset="1" stop-color="#6DC8EA" stop-opacity="0"/></radialGradient><radialGradient id="d" cx="0" cy="0" r="1" gradientUnits="userSpaceOnUse" gradientTransform="matrix(18.37152 -17.02997 25.98997 28.03735 10.506 19.03)"><stop offset=".972" stop-color="#BEFDFD" stop-opacity="0"/><stop offset=".995" stop-color="#BEFDFD"/></radialGradient><radialGradient id="f" cx="0" cy="0" r="1" gradientUnits="userSpaceOnUse" gradientTransform="matrix(-14.12515 -14.87492 19.16336 -18.19743 22.626 25.563)"><stop offset=".1" stop-color="#46A7FF"/><stop offset="1" stop-color="#3C7AB0"/></radialGradient><radialGradient id="g" cx="0" cy="0" r="1" gradientUnits="userSpaceOnUse" gradientTransform="rotate(25.448 -30.206 27.913) scale(20.0725 27.8904)"><stop stop-color="#43CEFF"/><stop offset="1" stop-color="#43D1FF"/></radialGradient><filter id="a" x="3.099" y="1.85" width="26.14" height="17.18" filterUnits="userSpaceOnUse" color-interpolation-filters="sRGB"><feFlood flood-opacity="0" result="BackgroundImageFix"/><feBlend in="SourceGraphic" in2="BackgroundImageFix" result="shape"/><feColorMatrix in="SourceAlpha" values="0 0 0 0 0 0 0 0 0 0 0 0 0 0 0 0 0 0 127 0" result="hardAlpha"/><feOffset dx=".15" dy="-.15"/><feGaussianBlur stdDeviation=".125"/><feComposite in2="hardAlpha" operator="arithmetic" k2="-1" k3="1"/><feColorMatrix values="0 0 0 0 0.443137 0 0 0 0 0.796078 0 0 0 0 0.894118 0 0 0 1 0"/><feBlend in2="shape" result="effect1_innerShadow_18_2404"/></filter><filter id="e" x="2.813" y="11.364" width="23.881" height="18.643" filterUnits="userSpaceOnUse" color-interpolation-filters="sRGB"><feFlood flood-opacity="0" result="BackgroundImageFix"/><feBlend in="SourceGraphic" in2="BackgroundImageFix" result="shape"/><feColorMatrix in="SourceAlpha" values="0 0 0 0 0 0 0 0 0 0 0 0 0 0 0 0 0 0 127 0" result="hardAlpha"/><feOffset dx="-.25" dy="-.3"/><feGaussianBlur stdDeviation=".5"/><feComposite in2="hardAlpha" operator="arithmetic" k2="-1" k3="1"/><feColorMatrix values="0 0 0 0 0.239216 0 0 0 0 0.490196 0 0 0 0 0.980392 0 0 0 1 0"/><feBlend in2="shape" result="effect1_innerShadow_18_2404"/></filter><filter id="h" x="7.213" y="12.888" width="16.906" height="12.449" filterUnits="userSpaceOnUse" color-interpolation-filters="sRGB"><feFlood flood-opacity="0" result="BackgroundImageFix"/><feBlend in="SourceGraphic" in2="BackgroundImageFix" result="shape"/><feColorMatrix in="SourceAlpha" values="0 0 0 0 0 0 0 0 0 0 0 0 0 0 0 0 0 0 127 0" result="hardAlpha"/><feOffset dx=".25" dy=".25"/><feGaussianBlur stdDeviation=".15"/><feComposite in2="hardAlpha" operator="arithmetic" k2="-1" k3="1"/><feColorMatrix values="0 0 0 0 0.4 0 0 0 0 0.866667 0 0 0 0 1 0 0 0 1 0"/><feBlend in2="shape" result="effect1_innerShadow_18_2404"/><feColorMatrix in="SourceAlpha" values="0 0 0 0 0 0 0 0 0 0 0 0 0 0 0 0 0 0 127 0" result="hardAlpha"/><feOffset dx=".1" dy=".1"/><feGaussianBlur stdDeviation=".05"/><feComposite in2="hardAlpha" operator="arithmetic" k2="-1" k3="1"/><feColorMatrix values="0 0 0 0 0.180392 0 0 0 0 0.815686 0 0 0 0 1 0 0 0 1 0"/><feBlend in2="effect1_innerShadow_18_2404" result="effect2_innerShadow_18_2404"/><feColorMatrix in="SourceAlpha" values="0 0 0 0 0 0 0 0 0 0 0 0 0 0 0 0 0 0 127 0" result="hardAlpha"/><feOffset dx="-.15" dy="-.15"/><feGaussianBlur stdDeviation=".125"/><feComposite in2="hardAlpha" operator="arithmetic" k2="-1" k3="1"/><feColorMatrix values="0 0 0 0 0.14902 0 0 0 0 0.745098 0 0 0 0 1 0 0 0 1 0"/><feBlend in2="effect2_innerShadow_18_2404" result="effect3_innerShadow_18_2404"/><feGaussianBlur stdDeviation=".05" result="effect4_foregroundBlur_18_2404"/></filter><linearGradient id="b" x1="22.563" y1="1.188" x2="16.094" y2="15.188" gradientUnits="userSpaceOnUse"><stop stop-color="#9FF6FB"/><stop offset="1" stop-color="#8DEBFC"/></linearGradient></defs></svg>
